resources/images/icons/close.svg

<svg fill="none" height="24" viewBox="0 0 24 24" width="24" xmlns="http://www.w3.org/2000/svg"><path d="m5.29289 5.29289c.39053-.39052 1.02369-.39052 1.41422 0l5.29289 5.29291 5.2929-5.29291c.3905-.39052 1.0237-.39052 1.4142 0 .3905.39053.3905 1.02369 0 1.41422l-5.2929 5.29289 5.2929 5.2929c.3905.3905.3905 1.0237 0 1.4142s-1.0237.3905-1.4142 0l-5.2929-5.2929-5.29289 5.2929c-.39053.3905-1.02369.3905-1.41422 0-.39052-.3905-.39052-1.0237 0-1.4142l5.29291-5.2929-5.29291-5.29289c-.39052-.39053-.39052-1.02369 0-1.41422z" fill="#0d0d0d" xmlns="http://www.w3.org/2000/svg"/></svg>

<svg fill="none" viewBox="0 0 24 24" height="24" width="24" xmlns="http://www.w3.org/2000/svg">
<path xmlns="http://www.w3.org/2000/svg" d="M5.29289 5.29289C5.68342 4.90237 6.31658 4.90237 6.70711 5.29289L12 10.5858L17.2929 5.29289C17.6834 4.90237 18.3166 4.90237 18.7071 5.29289C19.0976 5.68342 19.0976 6.31658 18.7071 6.70711L13.4142 12L18.7071 17.2929C19.0976 17.6834 19.0976 18.3166 18.7071 18.7071C18.3166 19.0976 17.6834 19.0976 17.2929 18.7071L12 13.4142L6.70711 18.7071C6.31658 19.0976 5.68342 19.0976 5.29289 18.7071C4.90237 18.3166 4.90237 17.6834 5.29289 17.2929L10.5858 12L5.29289 6.70711C4.90237 6.31658 4.90237 5.68342 5.29289 5.29289Z" fill="#0D0D0D"></path>
</svg>
